usr/share/icons/biglinux-icons-material/scalable/mimetypes/text-css.svg

<svg width="24" height="24" viewBox="0 0 24 24" fill="none" xmlns="http://www.w3.org/2000/svg">
<rect x="1" y="1" width="22" height="22" rx="6.6" fill="url(#paint0_radial_6_445)"/>
<path d="M9.05274 5.00015C8.70688 5.00346 8.41239 5.04295 8.17219 5.12086C7.92807 5.19544 7.73157 5.30726 7.58237 5.45646C7.43319 5.59886 7.32788 5.77864 7.26686 5.99564C7.20582 6.21264 7.17543 6.46015 7.17543 6.73819V10.6472C7.17543 10.7693 7.15502 10.8913 7.11432 11.0134C7.08042 11.1287 7.02287 11.2338 6.94151 11.3287C6.86691 11.4168 6.77182 11.4913 6.65654 11.5523C6.55606 11.5996 6.43655 11.6251 6.3 11.6312V12.3692C6.43655 12.376 6.55606 12.4045 6.65654 12.4577C6.77182 12.5119 6.86691 12.5866 6.94151 12.6816C7.02289 12.7697 7.08042 12.8748 7.11432 12.9969C7.15501 13.1121 7.17543 13.2309 7.17543 13.353V17.2619C7.17543 17.5399 7.20582 17.7876 7.26686 18.0046C7.32788 18.2216 7.43319 18.4044 7.58237 18.5536C7.73155 18.7028 7.92807 18.8148 8.17219 18.8894C8.41239 18.9608 8.70688 18.997 9.05274 19.0001H9.3625V18.2565H9.05274C8.71115 18.2464 8.46098 18.1765 8.30442 18.045C8.14168 17.9094 8.06025 17.6451 8.06025 17.2518V13.6072C8.06025 13.1596 7.99923 12.8138 7.87718 12.5696C7.7619 12.3255 7.5958 12.1358 7.3788 12.0001C7.5958 11.8645 7.7619 11.6745 7.87718 11.4304C7.99924 11.1863 8.06025 10.8404 8.06025 10.3929V6.74824C8.06025 6.35494 8.14168 6.09069 8.30442 5.95507C8.46098 5.82357 8.71115 5.75347 9.05274 5.74338H9.3625V5.0002L9.05274 5.00015Z" fill="#5884F4"/>
<path d="M14.6125 5.00007V5.74324H14.9223C15.2639 5.75333 15.514 5.82343 15.6706 5.95494C15.8333 6.09056 15.9148 6.3548 15.9148 6.74811V10.3927C15.9148 10.8403 15.9758 11.1862 16.0978 11.4303C16.2131 11.6744 16.3792 11.8644 16.5962 12C16.3792 12.1356 16.2131 12.3254 16.0978 12.5695C15.9758 12.8136 15.9148 13.1595 15.9148 13.6071V17.2517C15.9148 17.645 15.8333 17.9092 15.6706 18.0448C15.514 18.1764 15.2639 18.2463 14.9223 18.2563H14.6125V18.9999H14.9223C15.2681 18.997 15.5626 18.9607 15.8028 18.8893C16.047 18.8147 16.2434 18.7027 16.3926 18.5535C16.5418 18.4043 16.6471 18.2215 16.7082 18.0045C16.7692 17.7875 16.7996 17.5397 16.7996 17.2617V13.3528C16.7996 13.2308 16.82 13.112 16.8607 12.9967C16.8946 12.8746 16.9521 12.7696 17.0335 12.6814C17.1081 12.5865 17.2032 12.5118 17.3185 12.4575C17.4189 12.4043 17.5385 12.3759 17.675 12.3691V11.631C17.5385 11.6249 17.4189 11.5995 17.3185 11.5522C17.2032 11.4912 17.1081 11.4167 17.0335 11.3285C16.9521 11.2336 16.8946 11.1285 16.8607 11.0132C16.82 10.8912 16.7996 10.7691 16.7996 10.6471V6.73804C16.7996 6.46001 16.7692 6.21249 16.7082 5.99548C16.6471 5.77848 16.5418 5.59871 16.3926 5.45631C16.2435 5.30713 16.047 5.1953 15.8028 5.1207C15.5626 5.0428 15.2681 5.00334 14.9223 5L14.6125 5.00007Z" fill="#5884F4"/>
<defs>
<radialGradient id="paint0_radial_6_445" cx="0" cy="0" r="1" gradientUnits="userSpaceOnUse" gradientTransform="translate(17.5 1) rotate(116.565) scale(24.5967)">
<stop stop-color="#F4F4F4"/>
<stop offset="1" stop-color="#BBBBBB"/>
</radialGradient>
</defs>
</svg>

<svg xmlns="http://www.w3.org/2000/svg" width="24" height="24" fill="none"><rect width="22" height="22" x="1" y="1" fill="url(#a)" rx="6.6"/><path fill="#5884F4" d="M9.053 5c-.346.003-.64.043-.88.12a1.39 1.39 0 0 0-.59.336c-.15.143-.255.323-.316.54a2.747 2.747 0 0 0-.092.742v3.91c0 .121-.02.243-.06.365a.848.848 0 0 1-.173.316.95.95 0 0 1-.285.223.932.932 0 0 1-.357.08v.737a.845.845 0 0 1 .357.089c.115.054.21.129.285.224a.754.754 0 0 1 .172.315c.041.115.061.234.061.356v3.909c0 .278.03.526.092.743.06.217.166.4.315.549.15.149.346.26.59.335.24.072.535.108.88.111h.31v-.744h-.31c-.34-.01-.591-.08-.748-.211-.162-.136-.244-.4-.244-.793v-3.645c0-.447-.06-.793-.183-1.037A1.318 1.318 0 0 0 7.38 12c.217-.136.383-.325.498-.57.122-.244.183-.59.183-1.037V6.748c0-.393.082-.657.244-.793.157-.131.407-.202.749-.212h.31V5h-.31ZM14.613 5v.743h.31c.34.01.591.08.748.212.162.136.244.4.244.793v3.645c0 .447.06.793.183 1.037.115.244.281.434.498.57a1.318 1.318 0 0 0-.498.57c-.122.244-.183.59-.183 1.037v3.645c0 .393-.082.657-.244.793-.157.131-.407.201-.749.211h-.31V19h.31c.346-.003.64-.04.88-.11a1.39 1.39 0 0 0 .59-.337c.15-.149.255-.332.316-.549a2.75 2.75 0 0 0 .092-.742v-3.91c0-.121.02-.24.06-.355a.754.754 0 0 1 .174-.316.778.778 0 0 1 .285-.223c.1-.054.22-.082.356-.089v-.738a.932.932 0 0 1-.357-.079.948.948 0 0 1-.285-.223.847.847 0 0 1-.172-.316 1.151 1.151 0 0 1-.061-.366V6.738c0-.278-.03-.526-.092-.743a1.165 1.165 0 0 0-.315-.539 1.39 1.39 0 0 0-.59-.335 2.982 2.982 0 0 0-.88-.121h-.31Z"/><defs><radialGradient id="a" cx="0" cy="0" r="1" gradientTransform="rotate(116.565 8.441 5.908) scale(24.5967)" gradientUnits="userSpaceOnUse"><stop stop-color="#F4F4F4"/><stop offset="1" stop-color="#BBB"/></radialGradient></defs></svg>
